Newaita-dark/actions/32/gnumeric-object-arrow.svg

<svg height="32" viewBox="0 0 32 32" width="32" xmlns="http://www.w3.org/2000/svg"><g fill="#e0e0e0"><path d="m21.023438 9.117188 1.871093 1.871093-15.890625 15.890625c-.257812.257813-.675781.257813-.9375 0l-.933594-.933594c-.257812-.261718-.257812-.679687 0-.9375zm0 0"/><path d="m24.765625 13.792969-6.546875-6.546875 7.949219-1.40625zm0 0"/></g></svg>

<?xml version="1.0" encoding="UTF-8"?>
<svg xmlns="http://www.w3.org/2000/svg" xmlns:xlink="http://www.w3.org/1999/xlink" width="32px" height="32px" viewBox="0 0 32 32" version="1.1">
<g id="surface1">
<path style=" stroke:none;fill-rule:nonzero;fill:rgb(87.843138%,87.843138%,87.843138%);fill-opacity:1;" d="M 21.023438 9.117188 L 22.894531 10.988281 L 7.003906 26.878906 C 6.746094 27.136719 6.328125 27.136719 6.066406 26.878906 L 5.132812 25.945312 C 4.875 25.683594 4.875 25.265625 5.132812 25.007812 Z M 21.023438 9.117188 "/>
<path style=" stroke:none;fill-rule:nonzero;fill:rgb(87.843138%,87.843138%,87.843138%);fill-opacity:1;" d="M 24.765625 13.792969 L 18.21875 7.246094 L 26.167969 5.839844 Z M 24.765625 13.792969 "/>
</g>
</svg>
